packages/kaspersky-hexa-ui-icons/src/iconsSVGs/16x12/FlagSa.svg

<svg width="16" height="12" viewBox="0 0 16 12" fill="none" xmlns="http://www.w3.org/2000/svg">
<g clip-path="url(#clip0_41816_2960)">
<rect width="16" height="12" rx="2" fill="white"/>
<mask id="mask0_41816_2960" style="mask-type:luminance" maskUnits="userSpaceOnUse" x="0" y="0" width="16" height="12">
<rect width="16" height="12" rx="2" fill="white"/>
</mask>
<g mask="url(#mask0_41816_2960)">
<rect width="16" height="12" fill="#128C4B"/>
<path fill-rule="evenodd" clip-rule="evenodd" d="M3.80957 7.2H9.90481V6.86052C9.90481 6.46935 10.3204 6.21817 10.6667 6.4V7.2H11.6572C11.9517 7.2 12.1905 7.43878 12.1905 7.73333C12.1905 8.32243 11.713 8.8 11.1239 8.8H10.5715C10.2033 8.8 9.90481 8.50152 9.90481 8.13333V8H4.85719C4.67474 8 4.50026 7.92522 4.37443 7.7931L3.80957 7.2Z" fill="white"/>
<path fill-rule="evenodd" clip-rule="evenodd" d="M3.80957 4.93333C3.80957 4.84774 3.8425 4.76543 3.90152 4.70345L3.97158 4.62988C4.09419 4.50115 4.09419 4.29885 3.97158 4.17011L3.90152 4.09655C3.8425 4.03457 3.80957 3.95226 3.80957 3.86666V3.53333C3.80957 3.34924 3.95881 3.2 4.1429 3.2H4.42404C4.50546 3.2 4.57148 3.26601 4.57148 3.34744C4.57148 3.50456 4.78448 3.55269 4.85203 3.41083L4.90487 3.29988C4.93392 3.23886 4.99547 3.2 5.06305 3.2H5.89528C6.00574 3.2 6.09528 3.28954 6.09528 3.4C6.09528 3.51045 6.00574 3.6 5.89528 3.6H5.53338C5.42292 3.6 5.33338 3.68954 5.33338 3.8C5.33338 3.91045 5.42292 4 5.53338 4H5.76195C5.94605 4 6.09528 4.14924 6.09528 4.33333V5.26666C6.09528 5.45076 5.94605 5.6 5.76195 5.6H5.66671C5.48262 5.6 5.33338 5.45076 5.33338 5.26666V4.99047C5.33338 4.88528 5.41866 4.8 5.52386 4.8C5.62905 4.8 5.71433 4.71472 5.71433 4.60952V4.6C5.71433 4.48954 5.62479 4.4 5.51433 4.4H5.28576C5.10167 4.4 4.95243 4.54924 4.95243 4.73333V5.40952C4.95243 5.51472 4.86715 5.6 4.76195 5.6C4.65675 5.6 4.57148 5.51472 4.57148 5.40952V4.99047C4.57148 4.88528 4.4862 4.8 4.381 4.8C4.2758 4.8 4.19052 4.88528 4.19052 4.99047V5.40952C4.19052 5.51472 4.10524 5.6 4.00005 5.6C3.89485 5.6 3.80957 5.51472 3.80957 5.40952V4.93333Z" fill="white"/>
<path fill-rule="evenodd" clip-rule="evenodd" d="M9.90479 4.93333C9.90479 4.84774 9.93771 4.76543 9.99674 4.70345L10.0668 4.62988C10.1894 4.50115 10.1894 4.29885 10.0668 4.17011L9.99674 4.09655C9.93771 4.03457 9.90479 3.95226 9.90479 3.86666V3.53333C9.90479 3.34924 10.054 3.2 10.2381 3.2H10.5193C10.6007 3.2 10.6667 3.26601 10.6667 3.34744C10.6667 3.50456 10.8797 3.55269 10.9472 3.41083L11.0001 3.29988C11.0291 3.23886 11.0907 3.2 11.1583 3.2H11.9905C12.101 3.2 12.1905 3.28954 12.1905 3.4C12.1905 3.51045 12.101 3.6 11.9905 3.6H11.6286C11.5181 3.6 11.4286 3.68954 11.4286 3.8C11.4286 3.91045 11.5181 4 11.6286 4H11.8572C12.0413 4 12.1905 4.14924 12.1905 4.33333V5.26666C12.1905 5.45076 12.0413 5.6 11.8572 5.6H11.7619C11.5778 5.6 11.4286 5.45076 11.4286 5.26666V4.99047C11.4286 4.88528 11.5139 4.8 11.6191 4.8C11.7243 4.8 11.8095 4.71472 11.8095 4.60952V4.6C11.8095 4.48954 11.72 4.4 11.6095 4.4H11.381C11.1969 4.4 11.0476 4.54924 11.0476 4.73333V5.40952C11.0476 5.51472 10.9624 5.6 10.8572 5.6C10.752 5.6 10.6667 5.51472 10.6667 5.40952V4.99047C10.6667 4.88528 10.5814 4.8 10.4762 4.8C10.371 4.8 10.2857 4.88528 10.2857 4.99047V5.40952C10.2857 5.51472 10.2005 5.6 10.0953 5.6C9.99006 5.6 9.90479 5.51472 9.90479 5.40952V4.93333Z" fill="white"/>
<path fill-rule="evenodd" clip-rule="evenodd" d="M9.14289 3.79812C9.14289 3.90961 9.08337 4.0625 9.00536 4.14441L8.89947 4.25559C8.82352 4.33534 8.82146 4.4625 8.89947 4.54441L9.00536 4.65559C9.08132 4.73534 9.14289 4.88561 9.14289 5.00187V5.39812C9.14289 5.50962 9.06135 5.6 8.95063 5.6H8.57325C8.46707 5.6 8.38099 5.51438 8.38099 5.39812V5.00187C8.38099 4.89038 8.34583 4.87383 8.29263 4.98554L8.08839 5.41445C8.03959 5.51692 7.91036 5.6 7.81132 5.6H7.0459C6.94167 5.6 6.85718 5.50722 6.85718 5.4C6.85718 5.28954 6.93871 5.2 7.04944 5.2H7.42682C7.533 5.2 7.61908 5.10722 7.61908 5C7.61908 4.88954 7.53755 4.8 7.42682 4.8H7.04944C6.94326 4.8 6.85718 4.71397 6.85718 4.60381V3.39619C6.85718 3.28783 6.93871 3.2 7.04944 3.2H7.42682C7.533 3.2 7.61908 3.28561 7.61908 3.40187V3.79812C7.61908 3.90961 7.53073 4 7.42861 4C7.32341 4 7.23813 4.09277 7.23813 4.2C7.23813 4.31045 7.31967 4.4 7.43039 4.4H7.80777C7.91396 4.4 8.00003 4.30584 8.00003 4.20184V3.39815C8.00003 3.28871 8.08839 3.2 8.19051 3.2C8.29571 3.2 8.38099 3.28561 8.38099 3.40187V3.79812C8.38099 3.90961 8.46934 4 8.57146 4C8.67666 4 8.76194 3.91438 8.76194 3.79812V3.40187C8.76194 3.29038 8.8503 3.2 8.95242 3.2C9.05761 3.2 9.14289 3.28561 9.14289 3.40187V3.79812Z" fill="white"/>
</g>
</g>
<defs>
<clipPath id="clip0_41816_2960">
<rect width="16" height="12" fill="white"/>
</clipPath>
</defs>
</svg>

<svg xmlns="http://www.w3.org/2000/svg" width="16" height="12" fill="none" viewBox="0 0 16 12"><g clip-path="url(#a)"><rect width="16" height="12" fill="#fff" rx="2"/><mask id="b" width="16" height="12" x="0" y="0" maskUnits="userSpaceOnUse" style="mask-type:luminance"><rect width="16" height="12" fill="#fff" rx="2"/></mask><g mask="url(#b)"><path fill="#128c4b" d="M0 0h16v12H0z"/><path fill="#fff" fill-rule="evenodd" d="M3.81 7.2h6.095v-.339c0-.391.416-.642.762-.46v.8h.991a.533.533 0 0 1 .533.533c0 .589-.477 1.067-1.067 1.067h-.552a.667.667 0 0 1-.667-.667V8H4.857a.667.667 0 0 1-.483-.207zm0-2.267c0-.086.033-.168.092-.23l.07-.074a.333.333 0 0 0 0-.46l-.07-.073a.333.333 0 0 1-.092-.23v-.333c0-.184.149-.333.333-.333h.281c.082 0 .148.066.148.147 0 .157.213.205.281.063l.053-.111a.175.175 0 0 1 .157-.099h.832a.2.2 0 1 1 0 .4h-.362a.2.2 0 1 0 0 .4h.229a.333.333 0 0 1 .333.333v.933a.333.333 0 0 1-.333.333h-.095a.333.333 0 0 1-.333-.333V4.99a.191.191 0 0 1 .19-.19.191.191 0 0 0 .19-.19V4.6a.2.2 0 0 0-.2-.2h-.228a.333.333 0 0 0-.333.333v.676a.191.191 0 1 1-.381 0V4.99a.191.191 0 0 0-.381 0v.419a.191.191 0 1 1-.381 0zm6.095 0c0-.086.033-.168.092-.23l.07-.074a.333.333 0 0 0 0-.46l-.07-.073a.333.333 0 0 1-.092-.23v-.333c0-.184.149-.333.333-.333h.281c.081 0 .147.066.147.147 0 .157.213.205.281.063L11 3.299a.175.175 0 0 1 .158-.1h.832a.2.2 0 1 1 0 .4h-.362a.2.2 0 1 0 0 .4h.229a.333.333 0 0 1 .333.333v.933a.333.333 0 0 1-.333.333h-.095a.333.333 0 0 1-.333-.333v-.276a.191.191 0 0 1 .191-.19.19.19 0 0 0 .19-.19V4.6a.2.2 0 0 0-.2-.2h-.228a.333.333 0 0 0-.333.333v.676a.19.19 0 1 1-.381 0V4.99a.191.191 0 0 0-.381 0v.419a.19.19 0 1 1-.381 0zm-.762-1.135c0 .112-.059.264-.137.346l-.106.111a.21.21 0 0 0 0 .289l.106.111c.076.08.138.23.138.346v.396c0 .112-.082.202-.192.202h-.377c-.106 0-.192-.086-.192-.202v-.395c0-.111-.035-.128-.088-.016l-.204.429c-.049.102-.178.186-.277.186h-.765c-.104 0-.189-.093-.189-.2 0-.11.082-.2.192-.2h.377c.106 0 .192-.093.192-.2 0-.11-.082-.2-.192-.2h-.377c-.106 0-.192-.086-.192-.196V3.396c0-.108.082-.196.192-.196h.377c.106 0 .192.086.192.202v.396c0 .112-.088.202-.19.202-.105 0-.19.093-.19.2 0 .111.082.2.192.2h.377c.104 0 .19-.094.19-.198v-.804c0-.109.088-.198.191-.198.105 0 .191.086.191.202v.396c0 .112.088.202.191.202.105 0 .19-.086.19-.202v-.396c0-.111.088-.202.191-.202.105 0 .191.086.191.202z" clip-rule="evenodd"/></g></g><defs><clipPath id="a"><path fill="#fff" d="M0 0h16v12H0z"/></clipPath></defs></svg>
